public/svg/icon/eng.svg

<svg xmlns="http://www.w3.org/2000/svg" xmlns:xlink="http://www.w3.org/1999/xlink" width="32" height="32" viewBox="0 0 32 32"><defs><linearGradient id="eng-c" x1="50%" x2="50%" y1="0%" y2="100%"><stop offset="0%" stop-color="#FFF" stop-opacity=".5"/><stop offset="100%" stop-opacity=".5"/></linearGradient><circle id="eng-b" cx="16" cy="15" r="15"/><filter id="eng-a" width="111.7%" height="111.7%" x="-5.8%" y="-4.2%" filterUnits="objectBoundingBox"><feOffset dy=".5" in="SourceAlpha" result="shadowOffsetOuter1"/><feGaussianBlur in="shadowOffsetOuter1" result="shadowBlurOuter1" stdDeviation=".5"/><feComposite in="shadowBlurOuter1" in2="SourceAlpha" operator="out" result="shadowBlurOuter1"/><feColorMatrix in="shadowBlurOuter1" values="0 0 0 0 0 0 0 0 0 0 0 0 0 0 0 0 0 0 0.199473505 0"/></filter><path id="eng-e" d="M25.1490399,9.29523344 C25.2627635,9.35592018 25.5237884,9.49666602 25.4982529,9.80612743 L25.4825382,20.2227134 C25.5036917,20.4142246 25.3886019,20.606903 25.2001021,20.6950978 C24.435784,21.1404358 23.6551153,21.596575 22.9000851,22.0377494 C22.3039295,22.3860862 21.687471,22.7462868 21.0807386,23.100181 L16.2364341,25.9284076 C16.1748123,25.9752793 16.1008008,26 16.0218318,26 C15.9347605,26 15.8404118,25.9695477 15.7488555,25.9119271 L12.4070848,23.9837231 C10.5508357,22.9128334 8.63140111,21.8054987 6.73949526,20.7172401 C6.58038869,20.6404301 6.48734597,20.4605998 6.50139388,20.2568676 L6.50767463,17.5054249 C6.51396397,15.0286622 6.51716019,12.5139039 6.52025331,10.0819398 L6.5202619,10.0767918 L6.52076883,10.07167 C6.5221951,10.0571756 6.52161085,10.0401725 6.52099222,10.0221764 C6.52062277,10.0114972 6.52028768,10.0010358 6.52025331,9.99093148 L6.52023613,9.99013881 C6.51701413,9.85636145 6.51032096,9.57889406 6.77024601,9.45378375 C7.83017176,8.82146402 8.91504007,8.17825605 9.96432033,7.55615386 C10.5337119,7.21855722 11.1224955,6.86948001 11.7013984,6.52563786 C13.0227872,5.74285998 14.3693935,4.94380199 15.6716564,4.17105872 L15.6817263,4.16509196 C15.765292,4.11720981 15.849674,4.07760272 15.9472447,4.04047815 L16.0499019,4 L16.1458315,4.0572025 C17.0924374,4.60530816 18.053727,5.16512087 18.9833724,5.70650195 C19.5520336,6.03767017 20.1400526,6.3801099 20.7188781,6.71646964 C21.2837761,7.04496371 21.8581853,7.3794768 22.413675,7.70297099 C23.2876098,8.21192251 24.1912987,8.73820813 25.0814982,9.25474658 L25.0832252,9.25573959 L25.0849178,9.25681099 C25.1077811,9.27130543 25.1278778,9.28297763 25.1490399,9.29523344 Z M16.3799634,24.9650852 L19.3422342,23.2347075 C20.0052184,22.8479656 20.6677214,22.4612673 21.329958,22.0747171 C22.4441852,21.4243403 23.595736,20.7521783 24.7291147,20.0918453 L24.7384542,14.2433321 L24.7444514,10.3779956 L20.8936737,12.6295719 C20.8954093,13.0184391 20.8947305,13.4124369 20.8940775,13.7940482 C20.8937338,13.9980765 20.8933816,14.2020962 20.8933816,14.4061245 C20.8895667,15.7253881 20.8915686,16.7818443 20.8996623,17.7311688 L20.8996623,17.8074997 L20.8552932,17.8693798 C20.7989899,17.9504668 20.7222977,17.9973646 20.6711324,18.0284789 L20.645176,18.0449332 L20.6435435,18.0458827 C20.2281463,18.2882551 19.8069237,18.532988 19.3995686,18.7696724 C18.9501643,19.0307813 18.4854576,19.3007837 18.0297468,19.566936 L16.3859176,20.5223144 L16.3799634,24.9650852 Z M12.1842342,12.4089325 C12.5801104,12.6362965 12.9798358,12.8653155 13.3678589,13.0876274 C13.8069528,13.3391982 14.2609883,13.5993315 14.7075744,13.855998 L16.0119338,14.6046216 L19.7888032,12.3967464 L16.0059882,10.1646818 L12.1842342,12.4089325 Z M11.7935304,13.0595793 L11.8650759,17.4478043 L15.6327433,19.6434412 L15.6387061,15.2642491 L11.7935304,13.0595793 Z M7.27341904,10.4652758 L7.2550064,20.139501 L15.6294783,24.9696234 L15.6324598,20.5189956 L13.9920244,19.5638089 C13.6492468,19.3639878 13.3008413,19.161388 12.9639148,18.9654605 C12.4368303,18.6589346 11.8918314,18.3419995 11.3570484,18.0291583 C11.2018942,17.9558325 11.1054318,17.7778489 11.1156477,17.5832628 L11.0349002,12.6244849 L7.27341904,10.4652758 Z M24.367658,9.71865561 C23.8767372,9.43232083 23.3804979,9.14348612 22.899097,8.8632836 C22.3673556,8.55378735 21.8175194,8.23375127 21.2767048,7.91817502 C19.7329209,7.02184578 17.9023533,5.95784625 16.0126556,4.8520794 C13.9143442,6.09244241 12.0377063,7.20400181 10.2769573,8.24941293 L7.65116612,9.80628422 L11.4289119,11.9706152 L15.763101,9.4255527 C15.8339249,9.37852418 15.9171383,9.35368155 16.0040034,9.35368155 C16.0971578,9.35368155 16.1866177,9.38210423 16.2630607,9.43591831 L20.5388586,11.9574883 L24.367658,9.71865561 Z M16.3861324,19.6463244 C17.5114776,18.9899808 18.7227514,18.2857116 20.1776168,17.441855 L20.1776168,13.0500064 L16.3891052,15.2637525 L16.3861324,19.6463244 Z M21.512733,18.8533072 C21.4750313,18.8645352 21.4383005,18.8697789 21.3973339,18.8697789 C21.2852169,18.8697789 21.1836767,18.8284471 21.1105503,18.753205 C20.9914566,18.6535645 20.9346807,18.4814953 20.9656978,18.3124488 C20.9980982,18.1400225 21.1154821,18.0043723 21.2723547,17.9575006 C21.3144813,17.9435027 21.3582231,17.9364035 21.4023946,17.9364035 C21.5245813,17.9364035 21.64456,17.9920468 21.7315539,18.0890655 L21.733384,18.0911734 C21.8567221,18.2363791 21.886648,18.4331341 21.8105917,18.594585 C21.7685854,18.7162024 21.6527567,18.8170363 21.512733,18.8533072 Z M23.5767752,20.2606898 C23.4642716,20.1809966 23.3969962,20.0296761 23.4049353,19.8727982 C23.412754,19.7143437 23.495555,19.5723784 23.6265658,19.4927461 C23.6930936,19.4495502 23.7695881,19.4267372 23.8479299,19.4267372 C23.9333687,19.4267372 24.017304,19.453592 24.0907311,19.5044183 C24.2436429,19.6068898 24.322526,19.7854135 24.2929438,19.9610453 C24.2815078,20.1111985 24.1717193,20.2567178 24.0177679,20.3247476 C23.9604593,20.3496512 23.9023516,20.3621422 23.8444588,20.3621422 C23.7466733,20.3621422 23.651895,20.3261674 23.5767752,20.2606898 Z M10.3884943,17.9414931 C10.5126572,17.9414931 10.631536,17.9982688 10.7148183,18.0972909 C10.836859,18.2376099 10.8667333,18.4313684 10.7915791,18.59268 C10.7435413,18.7193495 10.6211827,18.8215858 10.4780658,18.8542506 C10.4461208,18.862212 10.4098711,18.8665848 10.3758297,18.8665848 C10.2727171,18.8665848 10.1735225,18.8286414 10.0960743,18.7596448 C9.97014141,18.659621 9.91196501,18.483693 9.94779363,18.3101518 C9.98370817,18.1402167 10.1051045,18.0064481 10.2648469,17.9602732 C10.3051777,17.947817 10.3467715,17.9414931 10.3884943,17.9414931 Z M22.3436649,19.517371 C22.2182303,19.4194725 22.1550104,19.2454174 22.1825821,19.0737141 C22.2102655,18.9053034 22.3222536,18.7669442 22.4750708,18.7118323 C22.5214848,18.6937665 22.5705365,18.6846029 22.6209028,18.6846029 C22.7307858,18.6846029 22.8370602,18.7277988 22.9202565,18.8062377 C23.0475555,18.9235172 23.1001901,19.0946631 23.0587423,19.2547813 C23.0380098,19.3983755 22.9256694,19.5310814 22.7766499,19.5869773 C22.7263437,19.6064717 22.6743536,19.6159575 22.6177495,19.6159575 C22.5206514,19.6159575 22.4233384,19.5809583 22.3436649,19.517371 Z M9.43899026,18.7938217 C9.5715132,18.9045072 9.6343121,19.0792767 9.60018469,19.2412764 C9.58451289,19.3797662 9.48548155,19.5100331 9.34611079,19.5746222 L9.34457283,19.5753191 C9.27714285,19.6052226 9.21703324,19.6191508 9.15541145,19.6191508 C9.07938089,19.6191508 9.0003603,19.595789 8.93265538,19.5533335 C8.78521674,19.4669331 8.70026768,19.2919633 8.71613709,19.1069589 C8.73216116,18.9241845 8.84264563,18.7746322 9.00481955,18.7156092 C9.05449847,18.6945295 9.10653159,18.6838329 9.15952702,18.6838329 C9.26038845,18.6838329 9.35699685,18.7218634 9.43899026,18.7938217 Z M15.94994,5.16631683 C16.0785106,5.16631683 16.2020721,5.22236082 16.2892379,5.32014599 C16.3960106,5.4333315 16.4357314,5.59006129 16.3958903,5.74060655 C16.3608522,5.91331158 16.2175549,6.04550361 16.0296995,6.07791574 L16.0274398,6.07830772 L16.0251715,6.07858646 C15.9972389,6.08213167 15.9684558,6.0857727 15.9400592,6.0857727 C15.7793889,6.0857727 15.6297937,6.00558294 15.5489344,5.87629153 C15.46353,5.75082408 15.4535718,5.58562759 15.5223937,5.43377574 L15.5233388,5.43174617 C15.5914046,5.28967632 15.7257233,5.19087201 15.8745882,5.17305883 C15.8992558,5.1685903 15.9245764,5.16631683 15.94994,5.16631683 Z M8.14884801,19.4903376 C8.29382075,19.5719908 8.38235267,19.7208462 8.38102951,19.8800062 C8.39515475,20.0335915 8.31097897,20.1968542 8.1697953,20.2883068 C8.09418574,20.3367116 8.00988967,20.3621465 7.92555923,20.3621465 C7.85202894,20.3621465 7.78166908,20.3433839 7.72180006,20.3078534 C7.57836529,20.2333255 7.48588964,20.0738954 7.48588964,19.9004761 C7.48588964,19.7270046 7.57452467,19.5701964 7.71731504,19.4907122 C7.78222756,19.4520458 7.85608436,19.4316195 7.93105811,19.4316195 C8.00573114,19.4316195 8.08103998,19.4519239 8.14884801,19.4903376 Z M16.1901258,8.20476763 C16.3364475,8.29953893 16.4164304,8.45639938 16.4046937,8.62487105 C16.3959728,8.78869998 16.2946045,8.9303343 16.1333499,9.00391272 L16.1323532,9.00434825 C16.0667705,9.03344165 15.9999506,9.0481974 15.9337664,9.0481974 C15.8274147,9.0481974 15.7293285,9.01486194 15.6497838,8.95176237 C15.5297107,8.86954304 15.4601928,8.71364947 15.4723849,8.5529912 C15.4845082,8.3932127 15.5691995,8.26060256 15.7048757,8.18872271 C15.7727524,8.14915917 15.8510083,8.12826245 15.9314122,8.12826245 C16.022496,8.12826245 16.1119558,8.15471653 16.1901258,8.20476763 Z M15.6206672,7.44728532 C15.517443,7.36213052 15.4607187,7.21920703 15.472421,7.07293867 L15.4726787,7.07015999 C15.4886512,6.92040739 15.5700174,6.78919094 15.6906662,6.71826925 C15.7619454,6.67040452 15.8463876,6.64511765 15.9351601,6.64511765 C16.0152031,6.64511765 16.095796,6.66601437 16.1682265,6.70555178 L16.1692146,6.70610055 C16.321628,6.79149054 16.4116635,6.94774995 16.4049274,7.11462759 C16.4074449,7.28775072 16.299727,7.44836544 16.129554,7.52458317 C16.0636362,7.55382465 15.9968162,7.5685804 15.9306235,7.5685804 C15.8116072,7.5685804 15.7045423,7.52665629 15.6206672,7.44728532 Z"/><filter id="eng-d" width="118.4%" height="115.9%" x="-9.2%" y="-5.7%" filterUnits="objectBoundingBox"><feOffset dy=".5" in="SourceAlpha" result="shadowOffsetOuter1"/><feGaussianBlur in="shadowOffsetOuter1" result="shadowBlurOuter1" stdDeviation=".5"/><feColorMatrix in="shadowBlurOuter1" values="0 0 0 0 0 0 0 0 0 0 0 0 0 0 0 0 0 0 0.204257246 0"/></filter></defs><g fill="none" fill-rule="evenodd"><use fill="#000" filter="url(#eng-a)" xlink:href="#eng-b"/><use fill="#2F2F2F" xlink:href="#eng-b"/><use fill="url(#eng-c)" style="mix-blend-mode:soft-light" xlink:href="#eng-b"/><circle cx="16" cy="15" r="14.5" stroke="#000" stroke-opacity=".097"/><g><use fill="#000" filter="url(#eng-d)" xlink:href="#eng-e"/><use fill="#FFF" xlink:href="#eng-e"/></g></g></svg>

<svg xmlns="http://www.w3.org/2000/svg" xmlns:xlink="http://www.w3.org/1999/xlink" width="32" height="32" viewBox="0 0 32 32"><defs><filter id="a" width="111.7%" height="111.7%" x="-5.8%" y="-4.2%" filterUnits="objectBoundingBox"><feOffset dy=".5" in="SourceAlpha" result="shadowOffsetOuter1"/><feGaussianBlur in="shadowOffsetOuter1" result="shadowBlurOuter1" stdDeviation=".5"/><feComposite in="shadowBlurOuter1" in2="SourceAlpha" operator="out" result="shadowBlurOuter1"/><feColorMatrix in="shadowBlurOuter1" values="0 0 0 0 0 0 0 0 0 0 0 0 0 0 0 0 0 0 0.199473505 0"/></filter><filter id="d" width="118.4%" height="115.9%" x="-9.2%" y="-5.7%" filterUnits="objectBoundingBox"><feOffset dy=".5" in="SourceAlpha" result="shadowOffsetOuter1"/><feGaussianBlur in="shadowOffsetOuter1" result="shadowBlurOuter1" stdDeviation=".5"/><feColorMatrix in="shadowBlurOuter1" values="0 0 0 0 0 0 0 0 0 0 0 0 0 0 0 0 0 0 0.204257246 0"/></filter><linearGradient id="c" x1="50%" x2="50%" y1="0%" y2="100%"><stop offset="0%" stop-color="#FFF" stop-opacity=".5"/><stop offset="100%" stop-opacity=".5"/></linearGradient><circle id="b" cx="16" cy="15" r="15"/><path id="e" d="M25.149 9.295c.114.06.375.202.35.511l-.016 10.417a.477.477 0 01-.283.472l-2.3 1.343-1.82 1.062-4.844 2.828a.35.35 0 01-.214.072.521.521 0 01-.273-.088l-3.342-1.928c-1.856-1.071-3.776-2.179-5.668-3.267-.159-.077-.252-.256-.238-.46l.007-2.752c.006-2.476.01-4.991.012-7.423v-.01a.396.396 0 00.001-.05v-.031c-.004-.135-.01-.412.25-.537 1.06-.633 2.144-1.276 3.193-1.898l1.737-1.03c1.322-.783 2.668-1.582 3.97-2.355l.01-.006a1.83 1.83 0 01.266-.125L16.05 4l.096.057c.946.548 1.908 1.108 2.837 1.65l1.736 1.01 1.695.986 2.667 1.552h.002l.002.002.064.038zm-8.769 15.67l2.962-1.73a8357.882 8357.882 0 005.387-3.143l.01-5.849.005-3.865-3.85 2.252v1.776a288.84 288.84 0 00.006 3.325v.076l-.045.062a.572.572 0 01-.184.16l-.026.016h-.001l-1.244.725c-.45.26-.915.53-1.37.797l-1.644.955-.006 4.443zM12.184 12.41a1302.649 1302.649 0 002.524 1.447l1.304.749 3.777-2.208-3.783-2.232-3.822 2.244zm-.39.65l.071 4.389 3.768 2.195.006-4.379-3.845-2.204zm-4.52-2.594l-.019 9.675 8.374 4.83.003-4.451-1.64-.955-1.028-.599c-.527-.306-1.072-.623-1.607-.936-.155-.073-.252-.251-.241-.446l-.081-4.959-3.762-2.159zm17.094-.746l-1.469-.856-1.622-.945c-1.544-.896-3.375-1.96-5.264-3.066a3322.48 3322.48 0 00-5.736 3.397L7.651 9.806l3.778 2.165 4.334-2.545a.448.448 0 01.5.01l4.276 2.521 3.829-2.238zm-7.982 9.927a1941.6 1941.6 0 013.792-2.204V13.05l-3.789 2.214-.003 4.382zm5.127-.793a.393.393 0 01-.116.017.394.394 0 01-.286-.117.467.467 0 01-.145-.44.449.449 0 01.436-.377c.123 0 .243.056.33.153l.001.002a.47.47 0 01.078.504.427.427 0 01-.298.258zm2.064 1.408a.45.45 0 01-.172-.388c.008-.159.09-.3.222-.38a.406.406 0 01.22-.066c.086 0 .17.027.244.077a.46.46 0 01.202.457.455.455 0 01-.449.401.407.407 0 01-.267-.101zm-13.189-2.32c.125 0 .244.057.327.156a.46.46 0 01.077.496.442.442 0 01-.416.274.456.456 0 01-.428-.556.458.458 0 01.44-.37zm11.956 1.576a.47.47 0 01-.161-.443.46.46 0 01.438-.39c.11 0 .216.044.3.122.127.118.18.289.138.449a.438.438 0 01-.282.332.432.432 0 01-.433-.07zm-12.905-.723c.133.11.195.285.161.447a.436.436 0 01-.254.334h-.001a.456.456 0 01-.19.044.426.426 0 01-.222-.066.467.467 0 01-.217-.446.448.448 0 01.289-.391.394.394 0 01.155-.032c.1 0 .197.038.279.11zm6.51-13.628c.13 0 .253.056.34.154.107.113.147.27.107.42a.438.438 0 01-.366.338h-.005a.461.461 0 01-.476-.202.45.45 0 01-.027-.442l.001-.002a.456.456 0 01.352-.259.424.424 0 01.075-.007zM8.15 19.49c.145.082.233.23.232.39a.454.454 0 01-.211.408.453.453 0 01-.244.074.399.399 0 01-.204-.054.458.458 0 01-.236-.408c0-.173.089-.33.231-.41a.418.418 0 01.432 0zm8.04-11.285a.458.458 0 01.215.42.443.443 0 01-.272.379.488.488 0 01-.2.044.451.451 0 01-.283-.096.444.444 0 01-.178-.399.44.44 0 01.233-.364.45.45 0 01.226-.06.48.48 0 01.26.076zm-.57-.758a.442.442 0 01-.148-.374V7.07a.462.462 0 01.219-.352.436.436 0 01.244-.073c.08 0 .16.021.233.06l.001.001a.449.449 0 01.236.409.449.449 0 01-.275.41.489.489 0 01-.2.044.442.442 0 01-.31-.122z"/></defs><g fill="none" fill-rule="evenodd"><use fill="#000" filter="url(#a)" xlink:href="#b"/><use fill="#2F2F2F" xlink:href="#b"/><use fill="url(#c)" style="mix-blend-mode:soft-light" xlink:href="#b"/><circle cx="16" cy="15" r="14.5" stroke="#000" stroke-opacity=".097"/><use fill="#000" filter="url(#d)" xlink:href="#e"/><use fill="#FFF" xlink:href="#e"/></g></svg>
